app/assets/img/sprites/cellphone.svg

<?xml version="1.0" encoding="UTF-8" standalone="no"?>
<!-- Created with Inkscape (http://www.inkscape.org/) -->
<svg
   width="32"
   height="32"
   version="1.1"
   xmlns="http://www.w3.org/2000/svg">
  <path d="m 9.9589966,1.0000019 c -1.894339,-0.00119 -3.432232,1.5282732 -3.435544,3.4191747 L 6.5000126,27.55942 c -0.0053,1.890693 1.531561,3.42526 3.427732,3.426959 l 12.1093644,0.01362 c 1.898222,-2e-4 3.435791,-1.53002 3.437497,-3.421121 L 25.5,4.438637 C 25.501401,2.5493604 23.964752,1.0132074 22.068362,1.0136241 Z M 21.59766,2.7786734 c 1.162593,0.00704 2.103267,0.9427158 2.101561,2.101712 l -0.02343,22.2256096 c 2.43e-4,1.159206 -0.942367,2.095628 -2.107421,2.093929 H 10.369153 C 9.2057246,29.200165 8.2648026,28.261351 8.2656386,27.105995 l 0.02344,-22.2275556 c 0,-1.4583589 1.043745,-2.093928 2.1093734,-2.093928 z M 11.005037,23.232768 c -0.951775,6.79e-4 -1.7228839,0.769813 -1.7225419,1.718132 -3.42e-4,0.948319 0.7707669,1.717453 1.7225419,1.718133 0.952499,3.39e-4 1.724737,-0.769094 1.724395,-1.718133 3.42e-4,-0.949039 -0.771896,-1.718473 -1.724395,-1.718132 z m 5.002783,0 c -0.952499,-3.41e-4 -1.724736,0.769093 -1.724395,1.718132 -3.41e-4,0.949039 0.771896,1.718472 1.724395,1.718133 0.952499,3.39e-4 1.724736,-0.769094 1.724395,-1.718133 3.41e-4,-0.949039 -0.771896,-1.718473 -1.724395,-1.718132 z m 5.000931,0 c -0.951775,6.79e-4 -1.722883,0.769814 -1.722542,1.718132 -3.41e-4,0.948319 0.770767,1.717453 1.722542,1.718133 0.952499,3.39e-4 1.724736,-0.769094 1.724395,-1.718133 3.41e-4,-0.949039 -0.771896,-1.718473 -1.724395,-1.718132 z" />
</svg>

<?xml version="1.0" encoding="UTF-8" standalone="no"?>
<!-- Created with Inkscape (http://www.inkscape.org/) -->
<svg
   width="32"
   height="32"
   version="1.1"
   xmlns="http://www.w3.org/2000/svg">
  <path d="M 9.9589844 1 C 8.0646473 0.99881 6.5267495 2.5290223 6.5234375 4.4199219 L 6.5 27.558594 C 6.4947 29.449285 8.0315653 30.984629 9.9277344 30.986328 L 22.037109 31 C 23.935329 30.9998 25.472903 29.469224 25.474609 27.578125 L 25.5 4.4394531 C 25.501401 2.5501784 23.964747 1.0132552 22.068359 1.0136719 L 9.9589844 1 z M 21.597656 2.7792969 C 22.760248 2.7863369 23.700925 3.7218643 23.699219 4.8808594 L 23.675781 27.105469 C 23.676024 28.264674 22.733412 29.200918 21.568359 29.199219 L 10.369141 29.199219 C 9.2057134 29.19946 8.264789 28.260824 8.265625 27.105469 L 8.2890625 4.8789062 C 8.2890625 3.4205488 9.3328102 2.7851563 10.398438 2.7851562 L 21.597656 2.7792969 z M 10.328125 3.734375 C 9.7315081 3.7348007 9.2478325 4.2160964 9.2480469 4.8105469 C 9.2478325 5.4049975 9.7315081 5.8882456 10.328125 5.8886719 C 10.925196 5.8888844 11.408417 5.4054488 11.408203 4.8105469 C 11.408417 4.2156451 10.925196 3.7341613 10.328125 3.734375 z M 11.005859 23.232422 C 10.054085 23.233101 9.2828611 24.002854 9.2832031 24.951172 C 9.2828611 25.89949 10.054085 26.669242 11.005859 26.669922 C 11.958357 26.670261 12.728858 25.90021 12.728516 24.951172 C 12.728858 24.002134 11.958357 23.232081 11.005859 23.232422 z M 16.007812 23.232422 C 15.055314 23.232081 14.282862 24.002134 14.283203 24.951172 C 14.282862 25.90021 15.055314 26.670261 16.007812 26.669922 C 16.960311 26.670261 17.732763 25.90021 17.732422 24.951172 C 17.732763 24.002134 16.960311 23.232081 16.007812 23.232422 z M 21.007812 23.232422 C 20.056038 23.233101 19.286768 24.002855 19.287109 24.951172 C 19.286768 25.89949 20.056038 26.669242 21.007812 26.669922 C 21.960311 26.670261 22.732763 25.90021 22.732422 24.951172 C 22.732763 24.002134 21.960311 23.232081 21.007812 23.232422 z" />
</svg>
